app/_assets/images/distributions/centos.svg

<svg height="27" viewBox="0 0 110 27" width="110" xmlns="http://www.w3.org/2000/svg" xmlns:xlink="http://www.w3.org/1999/xlink"><mask id="a" fill="#fff"><path d="m0 .4453913h109.223739v25.5546087h-109.223739z" fill="#fff" fill-rule="evenodd"/></mask><mask id="b" fill="#fff"><path d="m0 .4453913h109.223739v25.5546087h-109.223739z" fill="#fff" fill-rule="evenodd"/></mask><g fill="none" fill-rule="evenodd"><g fill="#262577"><path d="m43.3314304 20.866187h-6.4163478c-.6505652 0-1.2943478-.0898696-1.9307826-.270174-1.2321739-.3736087-2.2077391-1.2316087-2.9278261-2.5745652-.6505652-1.2180435-.9761304-2.6367391-.9761304-4.2566521 0-1.5645218.2910869-2.9487392.8721304-4.15265222.637-1.32882609 1.5436087-2.236 2.7203913-2.72039131.9133913-.37360869 1.8476957-.56069565 2.8029131-.56069565h5.8143913v2.78256522h-6.0427392c-.982913 0-1.6956521.533-2.1387826 1.59899996-.345913.8303044-.5188695 1.9172174-.5188695 3.2596087 0 1.1349566.2215652 2.0975218.6646956 2.8865653.512087.9269565 1.2316087 1.391 2.1591304 1.391l5.9178261-.0209131z"/><path d="m54.2604739 20.9285304h-5.0666087c-1.2316087 0-2.3043913-.5262174-3.2183478-1.5780869-.8998261-1.066-1.3497391-2.2908261-1.3497391-3.6750435 0-1.5091304.4917391-2.8102609 1.4746521-3.9039565.9964783-1.1072609 2.1037392-1.6611739 3.3217826-1.6611739h4.8173479v2.2218695h-3.5297826c-.4431305 0-.8235218.0418261-1.1417392.1243479-.3046521.0695217-.5883913.2147826-.8517826.4363478-.4843913.4154348-.7263043 1.0366087-.7263043 1.7425652h6.2292608v2.2427826h-6.208913c0 .3323478.0344783.5550435.104.7901739.083087.2215652.2424783.4499131.4776087.6856087.2351304.2215652.512087.3736087.8303043.4566957.3323479.0689565.7336522.104 1.2044783.104h3.6337826z"/><path d="m66.3445957 20.866187h-2.886v-7.0804783c0-.1803044-.0418261-.3391304-.1249131-.4776087-.0830869-.1526087-.2006522-.2978696-.3526956-.4363478-.2769566-.2351305-.595174-.3526957-.9552174-.3526957h-2.8238261v8.3471305h-2.8865652v-10.756087h5.5233043c.9829131 0 1.6956522.0553913 2.1387826.1661739.6923913.1661739 1.2457391.533 1.6611739 1.1004783.4708261.6646956.7059566 1.3915652.7059566 2.1806087z"/><path d="m75.0737 12.3528826h-2.802913v4.8795217c0 .4431305.1520434.8099566.4566956 1.1004783.3459131.2905217.8026087.4363478 1.370087.4363478h.8517826v2.0969566h-2.6785652c-.803174 0-1.6849131-.2905218-2.2523913-.8721305-.3323479-.345913-.5465653-.7268695-.6437827-1.1417391-.0966521-.4154348-.1452608-.9071739-.1452608-1.4746522v-5.0247826h-1.8273479v-2.2427826h1.8273479v-3.77904348h3.0414348v3.77904348h2.802913z"/><path d="m88.5826217 13.4949609c0-1.4260435-.3391304-2.561-1.0173913-3.4054348-.7613478-.94108697-1.8895217-1.41191306-3.3845217-1.41191306-1.4673044 0-2.5745652.50530435-3.3223478 1.51591306-.6228696.8444348-.9343044 1.944913-.9343044 3.3014348 0 1.5645217.2492609 2.7198261.7472174 3.4676087.6923913 1.0383043 1.9726087 1.5571739 3.8417826 1.5571739 1.578087 0 2.6853478-.5053044 3.3217826-1.5159131.4985218-.7890434.7477826-1.9584782.7477826-3.5088695zm3.6959566.0830869c0 2.8238261-.7822609 4.8450435-2.3462174 6.063087-1.2734348.982913-3.1284783 1.4740869-5.5651305 1.4740869-2.698913 0-4.6924347-.5674782-5.98-1.7024347-1.411913-1.2457392-2.1178695-3.2460435-2.1178695-6.0009131 0-2.2563478.6302174-4.0141739 1.8895217-5.27404347 1.3706522-1.37008695 3.4195652-2.05569565 6.1461739-2.05569565 3.0041305 0 5.122.65734783 6.3541739 1.9726087 1.0795653 1.16265217 1.6193479 3.00413042 1.6193479 5.52330432z"/><path d="m109.223796 16.360387c0 1.2734347-.422218 2.3462173-1.266653 3.2183478-.844434.8721304-1.917217 1.3084782-3.218347 1.3084782l-10.2784786-.020913v-2.6163913h8.4720436c.567478 0 1.045087-.1316957 1.432826-.3945217.442565-.3046522.66413-.7195218.66413-1.2457392 0-1.2321739-.87213-1.8482608-2.616391-1.8482608h-4.2769999c-1.2321739 0-2.3117391-.3803913-3.2392609-1.1417392-.9275217-.7613478-1.3915652-1.7301304-1.3915652-2.906913 0-1.30113045.449913-2.35356523 1.3497391-3.15617393.9139566-.81673913 2.111087-1.2253913 3.5925218-1.2253913h9.8212171v2.49204347h-8.658565c-.3877391 0-.7822608.1656087-1.1835652.49795653-.3877391.31821739-.5816087.69917393-.5816087 1.14230433 0 .4979565.187087.9201739.5606957 1.2666522.3877391.3317826.8512174.4979565 1.3915652.4979565h4.713348c1.467304 0 2.616391.3809565 3.446695 1.1423044.844435.7472173 1.266653 1.7442608 1.266653 2.99z" mask="url(#a)"/></g><path d="m11.7481 13.2333217-5.67252174 5.5866087-5.67252174-5.5866087 5.67252174-5.58660866z" fill="#932279"/><path d="m11.7481 13.2333217-5.67252174 5.5866087-5.67252174-5.5866087 5.67252174-5.58660866z" stroke="#fff"/><path d="m12.9291217 12.0897739-5.58773909-5.62165216 5.58773909-5.62221739 5.5877392 5.62221739z" fill="#efa724"/><path d="m12.9291217 12.0897739-5.58773909-5.62165216 5.58773909-5.62221739 5.5877392 5.62221739z" stroke="#fff"/><path d="m18.5300304 20.0168348-5.6725217 5.5866087-5.67252174-5.5866087 5.67252174-5.5866087z" fill="#9ccd2a"/><path d="m18.5300304 20.0168348-5.6725217 5.5866087-5.67252174-5.5866087 5.67252174-5.5866087z" stroke="#fff"/><path d="m19.7109391 18.8732304-5.5877391-5.6216521 5.5877391-5.62221743 5.5877392 5.62221743z" fill="#262577"/><path d="m19.7109391 18.8732304-5.5877391-5.6216521 5.5877391-5.62221743 5.5877392 5.62221743z" stroke="#fff"/><path d="m4.14982609 4.43526087h7.62986961v7.59482613h-7.62986961z" fill="#fce94f" mask="url(#b)"/><path d="m14.0411304 14.3406957h7.5744783v7.6304347h-7.5744783z" fill="#efa724" mask="url(#b)"/><path d="m14.0716522 4.48782609h7.599913v7.59200001h-7.599913z" fill="#932279" mask="url(#b)"/><path d="m3.86721739 4.16678261h7.91247831v7.86669569h-7.91247831z" fill="#9ccd2a" mask="url(#b)"/><path d="m3.86721739 4.16678261h7.91247831v7.86669569h-7.91247831z" mask="url(#b)" stroke="#fff"/><path d="m14.0411304 14.3406957h7.8644348v7.9130434h-7.8644348z" mask="url(#b)" stroke="#fff"/><path d="m14.0693913 4.21313043h7.8847826v7.86669567h-7.8847826z" mask="url(#b)" stroke="#fff"/><path d="m3.86778261 14.3406957h7.91247829v7.9124782h-7.91247829z" fill="#262577" mask="url(#b)"/><path d="m3.86778261 14.3406957h7.91247829v7.9124782h-7.91247829z" mask="url(#b)" stroke="#fff"/><path d="m11.7481 13.2333217-5.67252174 5.5866087-5.67252174-5.5866087 5.67252174-5.58660866z" mask="url(#b)" stroke="#fff"/><path d="m12.9290087 12.0897174-5.58773913-5.62165218 5.58773913-5.62221739 5.5877391 5.62221739z" mask="url(#b)" stroke="#fff"/><path d="m18.5300304 20.0168348-5.6725217 5.5866087-5.67252174-5.5866087 5.67252174-5.5866087z" mask="url(#b)" stroke="#fff"/><path d="m19.7108826 18.8731739-5.5877391-5.6216522 5.5877391-5.62221735 5.5877391 5.62221735z" mask="url(#b)" stroke="#fff"/></g></svg>

<?xml version="1.0" encoding="UTF-8" standalone="no"?>
<svg width="110px" height="27px" viewBox="0 0 110 27" version="1.1" xmlns="http://www.w3.org/2000/svg" xmlns:xlink="http://www.w3.org/1999/xlink" xmlns:sketch="http://www.bohemiancoding.com/sketch/ns">
    <!-- Generator: Sketch Beta 3.4 (14718) - http://www.bohemiancoding.com/sketch -->
    <title>logo - centOS</title>
    <desc>Created with Sketch Beta.</desc>
    <defs>
        <path id="path-1" d="M0,0.445391304 L109.223739,0.445391304 L109.223739,26 L0,26 L0,0.445391304 Z"></path>
        <path id="path-3" d="M0,0.445391304 L109.223739,0.445391304 L109.223739,26 L0,26 L0,0.445391304 Z"></path>
    </defs>
    <g id="Page-1" stroke="none" stroke-width="1" fill="none" fill-rule="evenodd" sketch:type="MSPage">
        <g id="logo---centOS" sketch:type="MSLayerGroup">
            <path d="M43.3314304,20.866187 L36.9150826,20.866187 C36.2645174,20.866187 35.6207348,20.7763174 34.9843,20.596013 C33.7521261,20.2224043 32.7765609,19.3644043 32.0564739,18.0214478 C31.4059087,16.8034043 31.0803435,15.3847087 31.0803435,13.7647957 C31.0803435,12.2002739 31.3714304,10.8160565 31.9524739,9.61214348 C32.5894739,8.28331739 33.4960826,7.37614348 34.6728652,6.89175217 C35.5862565,6.51814348 36.5205609,6.33105652 37.4757783,6.33105652 L43.2901696,6.33105652 L43.2901696,9.11362174 L37.2474304,9.11362174 C36.2645174,9.11362174 35.5517783,9.64662174 35.1086478,10.7126217 C34.7627348,11.5429261 34.5897783,12.6298391 34.5897783,13.9722304 C34.5897783,15.107187 34.8113435,16.0697522 35.2544739,16.8587957 C35.7665609,17.7857522 36.4860826,18.2497957 37.4136043,18.2497957 L43.3314304,18.2288826 L43.3314304,20.866187 L43.3314304,20.866187 Z" id="Fill-1" fill="#262577" sketch:type="MSShapeGroup"></path>
            <path d="M54.2604739,20.9285304 L49.1938652,20.9285304 C47.9622565,20.9285304 46.8894739,20.402313 45.9755174,19.3504435 C45.0756913,18.2844435 44.6257783,17.0596174 44.6257783,15.6754 C44.6257783,14.1662696 45.1175174,12.8651391 46.1004304,11.7714435 C47.0969087,10.6641826 48.2041696,10.1102696 49.422213,10.1102696 L54.2395609,10.1102696 L54.2395609,12.3321391 L50.7097783,12.3321391 C50.2666478,12.3321391 49.8862565,12.3739652 49.5680391,12.456487 C49.263387,12.5260087 48.9796478,12.6712696 48.7162565,12.8928348 C48.2318652,13.3082696 47.9899522,13.9294435 47.9899522,14.6354 L54.219213,14.6354 L54.219213,16.8781826 L48.0103,16.8781826 C48.0103,17.2105304 48.0447783,17.4332261 48.1143,17.6683565 C48.197387,17.8899217 48.3567783,18.1182696 48.5919087,18.3539652 C48.8270391,18.5755304 49.1039957,18.7275739 49.422213,18.8106609 C49.7545609,18.8796174 50.1558652,18.9146609 50.6266913,18.9146609 L54.2604739,18.9146609 L54.2604739,20.9285304 Z" id="Fill-3" fill="#262577" sketch:type="MSShapeGroup"></path>
            <path d="M66.3445957,20.866187 L63.4585957,20.866187 L63.4585957,13.7857087 C63.4585957,13.6054043 63.4167696,13.4465783 63.3336826,13.3081 C63.2505957,13.1554913 63.1330304,13.0102304 62.980987,12.8717522 C62.7040304,12.6366217 62.385813,12.5190565 62.0257696,12.5190565 L59.2019435,12.5190565 L59.2019435,20.866187 L56.3153783,20.866187 L56.3153783,10.1101 L61.8386826,10.1101 C62.8215957,10.1101 63.5343348,10.1654913 63.9774652,10.2762739 C64.6698565,10.4424478 65.2232043,10.8092739 65.6386391,11.3767522 C66.1094652,12.0414478 66.3445957,12.7683174 66.3445957,13.5573609 L66.3445957,20.866187 L66.3445957,20.866187 Z" id="Fill-5" fill="#262577" sketch:type="MSShapeGroup"></path>
            <path d="M75.0737,12.3528826 L72.270787,12.3528826 L72.270787,17.2324043 C72.270787,17.6755348 72.4228304,18.0423609 72.7274826,18.3328826 C73.0733957,18.6234043 73.5300913,18.7692304 74.0975696,18.7692304 L74.9493522,18.7692304 L74.9493522,20.866187 L72.270787,20.866187 C71.467613,20.866187 70.5858739,20.5756652 70.0183957,19.9940565 C69.6860478,19.6481435 69.4718304,19.267187 69.374613,18.8523174 C69.2779609,18.4368826 69.2293522,17.9451435 69.2293522,17.3776652 L69.2293522,12.3528826 L67.4020043,12.3528826 L67.4020043,10.1101 L69.2293522,10.1101 L69.2293522,6.33105652 L72.270787,6.33105652 L72.270787,10.1101 L75.0737,10.1101 L75.0737,12.3528826 Z" id="Fill-7" fill="#262577" sketch:type="MSShapeGroup"></path>
            <path d="M88.5826217,13.4949609 C88.5826217,12.0689174 88.2434913,10.9339609 87.5652304,10.0895261 C86.8038826,9.14843913 85.6757087,8.67761304 84.1807087,8.67761304 C82.7134043,8.67761304 81.6061435,9.18291739 80.8583609,10.1935261 C80.2354913,11.0379609 79.9240565,12.1384391 79.9240565,13.4949609 C79.9240565,15.0594826 80.1733174,16.214787 80.6712739,16.9625696 C81.3636652,18.0008739 82.6438826,18.5197435 84.5130565,18.5197435 C86.0911435,18.5197435 87.1984043,18.0144391 87.8348391,17.0038304 C88.3333609,16.214787 88.5826217,15.0453522 88.5826217,13.4949609 L88.5826217,13.4949609 Z M92.2785783,13.5780478 C92.2785783,16.4018739 91.4963174,18.4230913 89.9323609,19.6411348 C88.6589261,20.6240478 86.8038826,21.1152217 84.3672304,21.1152217 C81.6683174,21.1152217 79.6747957,20.5477435 78.3872304,19.412787 C76.9753174,18.1670478 76.2693609,16.1667435 76.2693609,13.4118739 C76.2693609,11.1555261 76.8995783,9.3977 78.1588826,8.13783043 C79.5295348,6.76774348 81.5784478,6.08213478 84.3050565,6.08213478 C87.309187,6.08213478 89.4270565,6.73948261 90.6592304,8.05474348 C91.7387957,9.21739565 92.2785783,11.0588739 92.2785783,13.5780478 L92.2785783,13.5780478 Z" id="Fill-9" fill="#262577" sketch:type="MSShapeGroup"></path>
            <g id="Group-13">
                <mask id="mask-2" sketch:name="Clip 12" fill="white">
                    <use xlink:href="#path-1"></use>
                </mask>
                <g id="Clip-12"></g>
                <path d="M109.223796,16.360387 C109.223796,17.6338217 108.801578,18.7066043 107.957143,19.5787348 C107.112709,20.4508652 106.039926,20.887213 104.738796,20.887213 L94.4603174,20.8663 L94.4603174,18.2499087 L102.932361,18.2499087 C103.499839,18.2499087 103.977448,18.118213 104.365187,17.855387 C104.807752,17.5507348 105.029317,17.1358652 105.029317,16.6096478 C105.029317,15.3774739 104.157187,14.761387 102.412926,14.761387 L98.1359261,14.761387 C96.9037522,14.761387 95.824187,14.3809957 94.8966652,13.6196478 C93.9691435,12.8583 93.5051,11.8895174 93.5051,10.7127348 C93.5051,9.41160435 93.955013,8.35916957 94.8548391,7.55656087 C95.7687957,6.73982174 96.9659261,6.33116957 98.4473609,6.33116957 L108.268578,6.33116957 L108.268578,8.82321304 L99.610013,8.82321304 C99.2222739,8.82321304 98.8277522,8.98882174 98.4264478,9.32116957 C98.0387087,9.63938696 97.8448391,10.0203435 97.8448391,10.4634739 C97.8448391,10.9614304 98.0319261,11.3836478 98.4055348,11.7301261 C98.7932739,12.0619087 99.2567522,12.2280826 99.7971,12.2280826 L104.510448,12.2280826 C105.977752,12.2280826 107.126839,12.6090391 107.957143,13.370387 C108.801578,14.1176043 109.223796,15.1146478 109.223796,16.360387 L109.223796,16.360387 Z" id="Fill-11" fill="#262577" sketch:type="MSShapeGroup" mask="url(#mask-2)"></path>
            </g>
            <path d="M11.7481,13.2333217 L6.07557826,18.8199304 L0.403056522,13.2333217 L6.07557826,7.64671304 L11.7481,13.2333217 Z" id="Fill-14" fill="#932279" sketch:type="MSShapeGroup"></path>
            <path d="M11.7481,13.2333217 L6.07557826,18.8199304 L0.403056522,13.2333217 L6.07557826,7.64671304 L11.7481,13.2333217 L11.7481,13.2333217 Z" id="Stroke-16" stroke="#FFFFFF" sketch:type="MSShapeGroup"></path>
            <path d="M12.9291217,12.0897739 L7.34138261,6.46812174 L12.9291217,0.845904348 L18.5168609,6.46812174 L12.9291217,12.0897739 Z" id="Fill-18" fill="#EFA724" sketch:type="MSShapeGroup"></path>
            <path d="M12.9291217,12.0897739 L7.34138261,6.46812174 L12.9291217,0.845904348 L18.5168609,6.46812174 L12.9291217,12.0897739 L12.9291217,12.0897739 Z" id="Stroke-20" stroke="#FFFFFF" sketch:type="MSShapeGroup"></path>
            <path d="M18.5300304,20.0168348 L12.8575087,25.6034435 L7.18498696,20.0168348 L12.8575087,14.4302261 L18.5300304,20.0168348 Z" id="Fill-22" fill="#9CCD2A" sketch:type="MSShapeGroup"></path>
            <path d="M18.5300304,20.0168348 L12.8575087,25.6034435 L7.18498696,20.0168348 L12.8575087,14.4302261 L18.5300304,20.0168348 L18.5300304,20.0168348 Z" id="Stroke-24" stroke="#FFFFFF" sketch:type="MSShapeGroup"></path>
            <path d="M19.7109391,18.8732304 L14.1232,13.2515783 L19.7109391,7.62936087 L25.2986783,13.2515783 L19.7109391,18.8732304 Z" id="Fill-26" fill="#262577" sketch:type="MSShapeGroup"></path>
            <path d="M19.7109391,18.8732304 L14.1232,13.2515783 L19.7109391,7.62936087 L25.2986783,13.2515783 L19.7109391,18.8732304 L19.7109391,18.8732304 Z" id="Stroke-28" stroke="#FFFFFF" sketch:type="MSShapeGroup"></path>
            <mask id="mask-4" sketch:name="Clip 31" fill="white">
                <use xlink:href="#path-3"></use>
            </mask>
            <g id="Clip-31"></g>
            <path d="M4.14982609,4.43526087 L11.7796957,4.43526087 L11.7796957,12.030087 L4.14982609,12.030087 L4.14982609,4.43526087 Z" id="Fill-30" fill="#FCE94F" sketch:type="MSShapeGroup" mask="url(#mask-4)"></path>
            <path d="M14.0411304,14.3406957 L21.6156087,14.3406957 L21.6156087,21.9711304 L14.0411304,21.9711304 L14.0411304,14.3406957 Z" id="Fill-32" fill="#EFA724" sketch:type="MSShapeGroup" mask="url(#mask-4)"></path>
            <path d="M14.0716522,4.48782609 L21.6715652,4.48782609 L21.6715652,12.0798261 L14.0716522,12.0798261 L14.0716522,4.48782609 Z" id="Fill-33" fill="#932279" sketch:type="MSShapeGroup" mask="url(#mask-4)"></path>
            <path d="M3.86721739,4.16678261 L11.7796957,4.16678261 L11.7796957,12.0334783 L3.86721739,12.0334783 L3.86721739,4.16678261 Z" id="Fill-34" fill="#9CCD2A" sketch:type="MSShapeGroup" mask="url(#mask-4)"></path>
            <path d="M3.86721739,4.16678261 L11.7796957,4.16678261 L11.7796957,12.0334783 L3.86721739,12.0334783 L3.86721739,4.16678261 Z" id="Stroke-35" stroke="#FFFFFF" sketch:type="MSShapeGroup" mask="url(#mask-4)"></path>
            <path d="M14.0411304,14.3406957 L21.9055652,14.3406957 L21.9055652,22.2537391 L14.0411304,22.2537391 L14.0411304,14.3406957 Z" id="Stroke-36" stroke="#FFFFFF" sketch:type="MSShapeGroup" mask="url(#mask-4)"></path>
            <path d="M14.0693913,4.21313043 L21.9541739,4.21313043 L21.9541739,12.0798261 L14.0693913,12.0798261 L14.0693913,4.21313043 Z" id="Stroke-37" stroke="#FFFFFF" sketch:type="MSShapeGroup" mask="url(#mask-4)"></path>
            <path d="M3.86778261,14.3406957 L11.7802609,14.3406957 L11.7802609,22.2531739 L3.86778261,22.2531739 L3.86778261,14.3406957 Z" id="Fill-38" fill="#262577" sketch:type="MSShapeGroup" mask="url(#mask-4)"></path>
            <path d="M3.86778261,14.3406957 L11.7802609,14.3406957 L11.7802609,22.2531739 L3.86778261,22.2531739 L3.86778261,14.3406957 Z" id="Stroke-39" stroke="#FFFFFF" sketch:type="MSShapeGroup" mask="url(#mask-4)"></path>
            <path d="M11.7481,13.2333217 L6.07557826,18.8199304 L0.403056522,13.2333217 L6.07557826,7.64671304 L11.7481,13.2333217 L11.7481,13.2333217 Z" id="Stroke-40" stroke="#FFFFFF" sketch:type="MSShapeGroup" mask="url(#mask-4)"></path>
            <path d="M12.9290087,12.0897174 L7.34126957,6.46806522 L12.9290087,0.845847826 L18.5167478,6.46806522 L12.9290087,12.0897174 L12.9290087,12.0897174 Z" id="Stroke-41" stroke="#FFFFFF" sketch:type="MSShapeGroup" mask="url(#mask-4)"></path>
            <path d="M18.5300304,20.0168348 L12.8575087,25.6034435 L7.18498696,20.0168348 L12.8575087,14.4302261 L18.5300304,20.0168348 L18.5300304,20.0168348 Z" id="Stroke-42" stroke="#FFFFFF" sketch:type="MSShapeGroup" mask="url(#mask-4)"></path>
            <path d="M19.7108826,18.8731739 L14.1231435,13.2515217 L19.7108826,7.62930435 L25.2986217,13.2515217 L19.7108826,18.8731739 L19.7108826,18.8731739 Z" id="Stroke-43" stroke="#FFFFFF" sketch:type="MSShapeGroup" mask="url(#mask-4)"></path>
        </g>
    </g>
</svg>
